material/.icons/material/folder-settings.svg

<svg xmlns="http://www.w3.org/2000/svg" viewBox="0 0 24 24"><path d="M4 4c-1.11 0-2 .89-2 2v12a2 2 0 002 2h16a2 2 0 002-2V8a2 2 0 00-2-2h-8l-2-2H4m3 18v2h2v-2H7m4 0v2h2v-2h-2m4 0v2h2v-2h-2z"/></svg>

<?xml version="1.0" encoding="UTF-8"?><!DOCTYPE svg PUBLIC "-//W3C//DTD SVG 1.1//EN" "http://www.w3.org/Graphics/SVG/1.1/DTD/svg11.dtd"><svg xmlns="http://www.w3.org/2000/svg" xmlns:xlink="http://www.w3.org/1999/xlink" version="1.1" id="mdi-folder-settings" width="24" height="24" viewBox="0 0 24 24"><path d="M4 4C2.89 4 2 4.89 2 6V18A2 2 0 0 0 4 20H20A2 2 0 0 0 22 18V8C22 6.89 21.1 6 20 6H12L10 4H4M7 22V24H9V22H7M11 22V24H13V22H11M15 22V24H17V22H15Z" /></svg>
